packages/ffe-icons/icons/open/400/sm/gesture_select.svg

<svg xmlns="http://www.w3.org/2000/svg" height="20" viewBox="0 -960 960 960" width="20"><path d="M120.211-792Q105-792 94.5-802.289q-10.5-10.29-10.5-25.5Q84-843 94.29-853.5q10.289-10.5 25.499-10.5Q135-864 145.5-853.711q10.5 10.29 10.5 25.5Q156-813 145.711-802.5q-10.29 10.5-25.5 10.5Zm144 0Q249-792 238.5-802.289q-10.5-10.29-10.5-25.5Q228-843 238.289-853.5q10.29-10.5 25.5-10.5Q279-864 289.5-853.711q10.5 10.29 10.5 25.5Q300-813 289.711-802.5q-10.29 10.5-25.5 10.5Zm144 0Q393-792 382.5-802.289q-10.5-10.29-10.5-25.5Q372-843 382.289-853.5q10.29-10.5 25.5-10.5Q423-864 433.5-853.711q10.5 10.29 10.5 25.5Q444-813 433.711-802.5q-10.29 10.5-25.5 10.5Zm144 0Q537-792 526.5-802.289q-10.5-10.29-10.5-25.5Q516-843 526.289-853.5q10.29-10.5 25.5-10.5Q567-864 577.5-853.711q10.5 10.29 10.5 25.5Q588-813 577.711-802.5q-10.29 10.5-25.5 10.5Zm144 0Q681-792 670.5-802.289q-10.5-10.29-10.5-25.5Q660-843 670.289-853.5q10.29-10.5 25.5-10.5Q711-864 721.5-853.711q10.5 10.29 10.5 25.5Q732-813 721.711-802.5q-10.29 10.5-25.5 10.5Zm144 0Q825-792 814.5-802.289q-10.5-10.29-10.5-25.5Q804-843 814.289-853.5q10.29-10.5 25.5-10.5Q855-864 865.5-853.711q10.5 10.29 10.5 25.5Q876-813 865.711-802.5q-10.29 10.5-25.5 10.5Zm-720 144Q105-648 94.5-658.289q-10.5-10.29-10.5-25.5Q84-699 94.29-709.5q10.289-10.5 25.499-10.5Q135-720 145.5-709.711q10.5 10.29 10.5 25.5Q156-669 145.711-658.5q-10.29 10.5-25.5 10.5Zm0 144Q105-504 94.5-514.289q-10.5-10.29-10.5-25.5Q84-555 94.29-565.5q10.289-10.5 25.499-10.5Q135-576 145.5-565.711q10.5 10.29 10.5 25.5Q156-525 145.711-514.5q-10.29 10.5-25.5 10.5Zm144 0Q249-504 238.5-514.289q-10.5-10.29-10.5-25.5Q228-555 238.289-565.5q10.29-10.5 25.5-10.5Q279-576 289.5-565.711q10.5 10.29 10.5 25.5Q300-525 289.711-514.5q-10.29 10.5-25.5 10.5Zm432 0Q681-504 670.5-514.289q-10.5-10.29-10.5-25.5Q660-555 670.289-565.5q10.29-10.5 25.5-10.5Q711-576 721.5-565.711q10.5 10.29 10.5 25.5Q732-525 721.711-514.5q-10.29 10.5-25.5 10.5Zm144 0Q825-504 814.5-514.289q-10.5-10.29-10.5-25.5Q804-555 814.289-565.5q10.29-10.5 25.5-10.5Q855-576 865.5-565.711q10.5 10.29 10.5 25.5Q876-525 865.711-514.5q-10.29 10.5-25.5 10.5Zm0-144Q825-648 814.5-658.289q-10.5-10.29-10.5-25.5Q804-699 814.289-709.5q10.29-10.5 25.5-10.5Q855-720 865.5-709.711q10.5 10.29 10.5 25.5Q876-669 865.711-658.5q-10.29 10.5-25.5 10.5ZM612-120H434h178ZM438-48q-21.882 0-41.941-8.5T361-80L185-256.068Q172-269 178-287t20-32q11-11 24.5-14.5t27.5.5l86 22v-325q0-15.3 10.289-25.65 10.29-10.35 25.5-10.35Q387-672 397.5-661.65 408-651.3 408-636v372q0 18-14 29t-31 6l-67-18 116 116q5 5 11.5 8t14.82 3H612q34.65 0 59.325-24.675Q696-169.35 696-204v-192q0-15.3 10.289-25.65 10.29-10.35 25.5-10.35Q747-432 757.5-421.65 768-411.3 768-396v192q0 65-45.5 110.5T612-48H438Zm53.789-480Q507-528 517.5-517.65 528-507.3 528-492v120q0 15.3-10.289 25.65-10.29 10.35-25.5 10.35Q477-336 466.5-346.35 456-356.7 456-372v-120q0-15.3 10.289-25.65 10.29-10.35 25.5-10.35Zm120 48Q627-480 637.5-469.675 648-459.35 648-444.088v71.825Q648-357 637.711-346.5q-10.29 10.5-25.5 10.5Q597-336 586.5-346.325 576-356.65 576-371.912v-71.825Q576-459 586.289-469.5q10.29-10.5 25.5-10.5Z"/></svg>

<svg xmlns="http://www.w3.org/2000/svg" height="20" viewBox="0 -960 960 960" width="20"><path d="M120.21-792Q105-792 94.5-802.29T84-827.79Q84-843 94.29-853.5t25.5-10.5q15.21 0 25.71 10.29t10.5 25.5q0 15.21-10.29 25.71t-25.5 10.5Zm144 0q-15.21 0-25.71-10.29t-10.5-25.5q0-15.21 10.29-25.71t25.5-10.5q15.21 0 25.71 10.29t10.5 25.5q0 15.21-10.29 25.71t-25.5 10.5Zm144 0q-15.21 0-25.71-10.29t-10.5-25.5q0-15.21 10.29-25.71t25.5-10.5q15.21 0 25.71 10.29t10.5 25.5q0 15.21-10.29 25.71t-25.5 10.5Zm144 0q-15.21 0-25.71-10.29t-10.5-25.5q0-15.21 10.29-25.71t25.5-10.5q15.21 0 25.71 10.29t10.5 25.5q0 15.21-10.29 25.71t-25.5 10.5Zm144 0q-15.21 0-25.71-10.29t-10.5-25.5q0-15.21 10.29-25.71t25.5-10.5q15.21 0 25.71 10.29t10.5 25.5q0 15.21-10.29 25.71t-25.5 10.5Zm144 0q-15.21 0-25.71-10.29t-10.5-25.5q0-15.21 10.29-25.71t25.5-10.5q15.21 0 25.71 10.29t10.5 25.5q0 15.21-10.29 25.71t-25.5 10.5Zm-720 144Q105-648 94.5-658.29T84-683.79Q84-699 94.29-709.5t25.5-10.5q15.21 0 25.71 10.29t10.5 25.5q0 15.21-10.29 25.71t-25.5 10.5Zm0 144Q105-504 94.5-514.29T84-539.79Q84-555 94.29-565.5t25.5-10.5q15.21 0 25.71 10.29t10.5 25.5q0 15.21-10.29 25.71t-25.5 10.5Zm144 0q-15.21 0-25.71-10.29t-10.5-25.5q0-15.21 10.29-25.71t25.5-10.5q15.21 0 25.71 10.29t10.5 25.5q0 15.21-10.29 25.71t-25.5 10.5Zm432 0q-15.21 0-25.71-10.29t-10.5-25.5q0-15.21 10.29-25.71t25.5-10.5q15.21 0 25.71 10.29t10.5 25.5q0 15.21-10.29 25.71t-25.5 10.5Zm144 0q-15.21 0-25.71-10.29t-10.5-25.5q0-15.21 10.29-25.71t25.5-10.5q15.21 0 25.71 10.29t10.5 25.5q0 15.21-10.29 25.71t-25.5 10.5Zm0-144q-15.21 0-25.71-10.29t-10.5-25.5q0-15.21 10.29-25.71t25.5-10.5q15.21 0 25.71 10.29t10.5 25.5q0 15.21-10.29 25.71t-25.5 10.5ZM612-120H434h178ZM438-48q-21.88 0-41.94-8.5T361-80L185-256.07Q172-269 178-287t20-32q11-11 24.5-14.5t27.5.5l86 22v-325q0-15.3 10.29-25.65Q356.58-672 371.79-672t25.71 10.35Q408-651.3 408-636v372q0 18-14 29t-31 6l-67-18 116 116q5 5 11.5 8t14.82 3H612q34.65 0 59.33-24.68Q696-169.35 696-204v-192q0-15.3 10.29-25.65Q716.58-432 731.79-432t25.71 10.35Q768-411.3 768-396v192q0 65-45.5 110.5T612-48H438Zm53.79-480q15.21 0 25.71 10.35T528-492v120q0 15.3-10.29 25.65Q507.42-336 492.21-336t-25.71-10.35Q456-356.7 456-372v-120q0-15.3 10.29-25.65Q476.58-528 491.79-528Zm120 48q15.21 0 25.71 10.32 10.5 10.33 10.5 25.59v71.83q0 15.26-10.29 25.76-10.29 10.5-25.5 10.5t-25.71-10.32Q576-356.65 576-371.91v-71.83q0-15.26 10.29-25.76 10.29-10.5 25.5-10.5Z"/></svg>
